X: 1
T: the Goat Whisperer
C: Hanneke Cassel 2009
R: reel
Z: 2014 John Chambers <jc:trillian.mit.edu>
S: Handwritten tune from Concord Slow Scottish Session collection
N: Presented by Hanneke Cassel, Boston Harbor Scottish Fiddle School, August 2009
M: C|
L: 1/8
K: D
dc |\
dA A/A/A fAeA | dA A/A/A a2gf | f3e e3d | edgf edce |
dA A/A/A fAeA | d2ag fedc | d2bd gfed | dcec d2 :|
|: dc |\
dAaA dAeA | fedc defa | gdbd gdbd | edad ecac |
dcac dAeA | fedc dcBA | G3f gfed | dcec d2 :|
